packages/varlock-website/src/custom-icons/opencode-logo.svg

<svg clip-rule="evenodd" fill-rule="evenodd" stroke-linejoin="round" stroke-miterlimit="2" viewBox="0 0 240 300" xmlns="http://www.w3.org/2000/svg" fill="#000000"><g fill-rule="nonzero"><path d="m60 120h120v120h-120z" opacity=".35"/><path d="m180 60h-120v180h120zm60 240h-240v-300h240z"/></g></svg>

<svg width='240' height='300' viewBox='0 0 240 300' fill='none' xmlns='http://www.w3.org/2000/svg'><g clip-path='url(#clip0_1401_86274)'><mask id='mask0_1401_86274' style='mask-type:luminance' maskUnits='userSpaceOnUse' x='0' y='0' width='240' height='300'><path d='M240 0H0V300H240V0Z' fill='#000000'/></mask><g mask='url(#mask0_1401_86274)'><path d='M180 240H60V120H180V240Z' fill='#000000' style="opacity: 0.5"/><path d='M180 60H60V240H180V60ZM240 300H0V0H240V300Z' fill='#000000'/></g></g><defs><clipPath id='clip0_1401_86274'><rect width='240' height='300' fill='#000000'/></clipPath></defs></svg>
